src/img/distribution/distribution-02.svg

<svg width="100" height="100" viewBox="0 0 100 100" fill="none" xmlns="http://www.w3.org/2000/svg">
<g clip-path="url(#clip0)">
<path d="M10.4072 31.4302V71.4302L59.8978 100L94.5422 80.0001V40.0001L59.8978 60.0001L10.4072 31.4302Z" fill="#E0E0E2"/>
<path d="M94.5423 39.999V79.999L59.8979 99.999V59.999L94.5423 39.999Z" fill="#C6C5CB"/>
<path d="M7.93262 21.4285L45.0516 0L97.0164 29.9986V38.5713L59.8977 60L7.93613 30.0014L7.93262 21.4285Z" fill="#009CB4"/>
<path d="M7.93262 21.4277L7.93613 30.0006L59.8977 59.9992V51.4264L7.93262 21.4277Z" fill="#006774"/>
<path d="M59.8979 59.9994L97.0167 38.5707V29.998L59.8979 51.4266V59.9994Z" fill="#006774"/>
<path d="M12.8813 21.4282L45.0517 2.85693L92.0679 29.9983L59.8978 48.5696L12.8813 21.4282Z" fill="#006774"/>
<path d="M15.356 22.8567L45.0517 5.71416V2.85693L12.8813 21.4282L15.356 22.8567Z" fill="#004F59"/>
<path d="M45.0518 5.71416L89.5935 31.4267L92.068 29.9983L45.0518 2.85693V5.71416Z" fill="url(#paint0_linear)"/>
<path d="M49.7334 27.4322L63.0951 19.7178L76.4568 27.4322V33.2969L63.0951 41.0111L49.7334 33.2969V27.4322Z" fill="#E0E0E2"/>
<path d="M59.5929 25.411C57.6659 26.5235 57.6642 28.3429 59.5888 29.4542C61.5136 30.5655 64.6667 30.5655 66.5958 29.4542C68.5249 28.3429 68.5269 26.5235 66.5999 25.411C64.6729 24.2985 61.5198 24.2985 59.5929 25.411Z" fill="#C6C5CB"/>
<path d="M49.7334 27.4326V33.2973L63.0951 41.0115V35.1471L49.7334 27.4326Z" fill="#C6C5CB"/>
<path d="M63.0952 41.011L76.4569 33.2968V27.4321L63.0952 35.1466V41.011Z" fill="#ACABB1"/>
<path d="M41.0135 24.1117V21.8951C41.0145 21.1621 40.5332 20.4287 39.5695 19.8725C37.6426 18.76 34.4895 18.76 32.5625 19.8725C31.5988 20.4287 31.1166 21.1621 31.1162 21.8951V24.1117C31.115 24.8447 31.5955 25.5779 32.5584 26.1338C34.4832 27.2451 37.6361 27.2451 39.5654 26.1338C40.5305 25.5781 41.0131 24.8451 41.0135 24.1117Z" fill="#C6C5CB"/>
<path d="M32.5626 19.8725C30.6356 20.985 30.6339 22.8043 32.5585 23.9156C34.4833 25.027 37.6362 25.027 39.5655 23.9156C41.4948 22.8043 41.4966 20.985 39.5696 19.8725C37.6425 18.76 34.4895 18.76 32.5626 19.8725Z" fill="#E0E0E2"/>
<path d="M51.9544 17.7951V15.5787C51.9554 14.8457 51.4741 14.1123 50.5104 13.5561C48.5835 12.4436 45.4304 12.4436 43.5034 13.5561C42.5397 14.1123 42.0575 14.8457 42.0571 15.5787V17.7953C42.056 18.5283 42.5364 19.2615 43.4993 19.8174C45.4241 20.9287 48.577 20.9287 50.5063 19.8174C51.4714 19.2615 51.954 18.5285 51.9544 17.7951Z" fill="#C6C5CB"/>
<path d="M43.503 13.557C41.5761 14.6695 41.5743 16.4888 43.4989 17.6001C45.4237 18.7115 48.5767 18.7115 50.506 17.6001C52.4353 16.4888 52.437 14.6695 50.5101 13.557C48.5831 12.4447 45.43 12.4445 43.503 13.557Z" fill="#E0E0E2"/>
<path d="M15.3597 45.7104L15.355 59.9974L27.731 67.1401V52.8544L15.3597 45.7104Z" fill="#59A4FF"/>
<path d="M42.2884 61.4258L42.2837 75.7127L54.6597 82.8555V68.5697L42.2884 61.4258Z" fill="#59A4FF"/>
<path d="M30.2021 82.8569V54.2856L40.1033 59.9999V88.572L30.2021 82.8569Z" fill="#006774"/>
<path d="M32.0562 56.9678V69.6486L38.0114 73.093L38.0149 60.41L32.0562 56.9678Z" fill="#59A4FF"/>
<path d="M38.4478 74.4756C38.4478 74.5127 38.4478 77.3928 38.4478 77.3928L39.3011 77.8854V74.9682L38.4478 74.4756Z" fill="#EEBF00"/>
<path d="M38.5395 76.5218C38.8034 76.5218 39.0174 76.3078 39.0174 76.0438C39.0174 75.7799 38.8034 75.5659 38.5395 75.5659C38.2755 75.5659 38.0615 75.7799 38.0615 76.0438C38.0615 76.3078 38.2755 76.5218 38.5395 76.5218Z" fill="#FED322"/>
<path d="M64.8457 65.7136L89.5904 51.4282L89.5898 68.5708L64.8457 82.8561V65.7136Z" fill="#2487FF"/>
<path d="M12.8815 32.8589L2.98779 38.5712L47.5265 64.2854L57.4269 58.57L12.8815 32.8589Z" fill="white"/>
<path d="M7.93682 41.4288L2.98779 38.5718V41.4278C2.98779 41.4282 2.98779 41.4284 2.98779 41.4288C2.98779 43.0009 4.10127 44.9294 5.4624 45.7145C6.82354 46.4997 7.93701 45.8563 7.93701 44.2849C7.93701 44.261 7.93428 44.236 7.93389 44.212C7.93643 43.5468 7.93682 41.4288 7.93682 41.4288Z" fill="#006774"/>
<path d="M12.8855 44.2857L7.93652 41.4287V44.2848C7.93652 44.2852 7.93652 44.2854 7.93652 44.2857C7.93652 45.8578 9.05 47.7863 10.4111 48.5715C11.7723 49.3566 12.8857 48.7133 12.8857 47.1418C12.8857 47.118 12.883 47.093 12.8826 47.0689C12.8854 46.4037 12.8855 44.2857 12.8855 44.2857Z" fill="#E0E0E2"/>
<path d="M17.8343 47.1432L12.8853 44.2861V47.1422C12.8853 47.1426 12.8853 47.1428 12.8853 47.1432C12.8853 48.7152 13.9987 50.6437 15.3599 51.4289C16.721 52.214 17.8345 51.5707 17.8345 49.9992C17.8345 49.9754 17.8317 49.9504 17.8313 49.9264C17.8341 49.2611 17.8343 47.1432 17.8343 47.1432Z" fill="#006774"/>
<path d="M22.783 50.0001L17.834 47.1431V49.9991C17.834 49.9995 17.834 49.9997 17.834 50.0001C17.834 51.5722 18.9475 53.5007 20.3086 54.2858C21.6697 55.0712 22.7832 54.4276 22.7832 52.8562C22.7832 52.8323 22.7805 52.8073 22.7801 52.7833C22.7826 52.1183 22.783 50.0001 22.783 50.0001Z" fill="#E0E0E2"/>
<path d="M27.7312 52.8575L22.7822 50.0005V52.8563C22.7822 52.8567 22.7822 52.8569 22.7822 52.8573C22.7822 54.4294 23.8957 56.3579 25.2568 57.1431C26.618 57.9282 27.7314 57.2849 27.7314 55.7134C27.7314 55.6895 27.7287 55.6646 27.7283 55.6405C27.731 54.9755 27.7312 52.8575 27.7312 52.8575Z" fill="#006774"/>
<path d="M32.68 55.7135L27.731 52.8564V55.7123C27.731 55.7127 27.731 55.7129 27.731 55.7133C27.731 57.2854 28.8444 59.2139 30.2056 59.999C31.5667 60.7844 32.6802 60.1408 32.6802 58.5693C32.6802 58.5455 32.6774 58.5205 32.677 58.4965C32.6798 57.8315 32.68 55.7135 32.68 55.7135Z" fill="#E0E0E2"/>
<path d="M37.6287 58.5709L32.6797 55.7139V58.5697C32.6797 58.5701 32.6797 58.5703 32.6797 58.5707C32.6797 60.1428 33.7932 62.0713 35.1543 62.8564C36.5154 63.6418 37.6289 62.9982 37.6289 61.4268C37.6289 61.4029 37.6262 61.3779 37.6258 61.3539C37.6283 60.6889 37.6287 58.5709 37.6287 58.5709Z" fill="#006774"/>
<path d="M42.5779 61.4278L37.6289 58.5708V61.4267C37.6289 61.427 37.6289 61.4272 37.6289 61.4276C37.6289 62.9997 38.7424 64.9282 40.1035 65.7134C41.4646 66.4985 42.5781 65.8552 42.5781 64.2837C42.5781 64.2599 42.5754 64.2349 42.575 64.2108C42.5773 63.5458 42.5779 61.4278 42.5779 61.4278Z" fill="#E0E0E2"/>
<path d="M47.5262 64.2857L42.5771 61.4287V64.2846C42.5771 64.285 42.5771 64.2852 42.5771 64.2855C42.5771 65.8576 43.6906 67.7861 45.0518 68.5713C46.4129 69.3566 47.5264 68.7131 47.5264 67.1416C47.5264 67.1178 47.5236 67.0928 47.5232 67.0687C47.526 66.4037 47.5262 64.2857 47.5262 64.2857Z" fill="#006774"/>
<path d="M7.9363 41.4284C7.9363 41.4284 17.8343 35.7138 17.834 35.7138C17.8336 35.714 12.8814 32.8589 12.8814 32.8589C12.8814 32.8589 2.75114 38.4347 2.98747 38.5712C3.22399 38.7077 7.9363 41.4284 7.9363 41.4284Z" fill="#009CB4"/>
<path d="M17.8333 47.1423C17.8333 47.1423 27.7313 41.4276 27.7309 41.4276C27.7305 41.4278 22.7784 38.5728 22.7784 38.5728C22.7784 38.5728 12.6481 44.1485 12.8844 44.2851C13.121 44.4216 17.8333 47.1423 17.8333 47.1423Z" fill="#009CB4"/>
<path d="M27.7307 52.8576C27.7307 52.8576 37.6288 47.143 37.6284 47.143C37.628 47.1432 32.6758 44.2881 32.6758 44.2881C32.6758 44.2881 22.5456 49.8639 22.7819 50.0004C23.0184 50.1371 27.7307 52.8576 27.7307 52.8576Z" fill="#009CB4"/>
<path d="M37.6277 58.572C37.6277 58.572 47.5257 52.8573 47.5254 52.8573C47.525 52.8573 42.5728 50.0024 42.5728 50.0024C42.5728 50.0024 32.4425 55.5782 32.6789 55.7147C32.9154 55.8513 37.6277 58.572 37.6277 58.572Z" fill="#009CB4"/>
<path d="M47.5247 64.2868C47.5247 64.2868 57.4227 58.5722 57.4223 58.5722C57.4219 58.5724 52.4698 55.7173 52.4698 55.7173C52.4698 55.7173 42.3395 61.2931 42.5758 61.4296C42.8124 61.5663 47.5247 64.2868 47.5247 64.2868Z" fill="#009CB4"/>
<path d="M18.5273 23.0555V38.2801L48.2594 55.4461L50.1016 54.3961V39.1375L20.4285 22.0059L18.5273 23.0555Z" fill="#E0E0E2"/>
<path d="M48.2593 55.4453L50.1015 54.3953V39.1367L48.2593 40.1867V55.4453Z" fill="#C6C5CB"/>
<path d="M18.5273 23.0555L20.4285 22.0059L50.1016 39.1375L48.2594 40.1875L18.5273 23.0555Z" fill="white"/>
<path d="M22.3125 30.2563C22.1109 30.3211 21.9545 30.4602 21.8398 30.6659C21.7252 30.8735 21.6689 31.1534 21.668 31.5035C21.6672 31.7711 21.7016 32.0205 21.7717 32.2518C21.8414 32.4848 21.9482 32.7162 22.0885 32.9436C22.2287 33.1709 22.4061 33.3987 22.6166 33.6285C22.8291 33.8592 23.0785 34.1014 23.3662 34.3584C23.6037 34.5748 23.818 34.7696 24.0105 34.9463C24.2029 35.1231 24.3668 35.2889 24.5023 35.4444C24.6379 35.6018 24.7414 35.7522 24.8148 35.8987C24.8883 36.0451 24.9248 36.1934 24.9242 36.3418C24.9229 36.8174 24.6006 36.8684 23.9557 36.4959C23.7229 36.3614 23.4967 36.1981 23.2775 36.0061C23.0564 35.8149 22.8559 35.618 22.675 35.4194C22.4943 35.2205 22.3389 35.0364 22.2051 34.8664C22.073 34.6955 21.9811 34.5657 21.9311 34.4787L21.4102 35.3387C21.7596 35.8278 22.1543 36.2752 22.5959 36.6866C23.0361 37.0967 23.483 37.434 23.9354 37.6951C24.2283 37.8643 24.51 37.9885 24.7781 38.0701C25.048 38.1508 25.2863 38.1688 25.4928 38.126C25.6992 38.0813 25.8641 37.9643 25.9854 37.7703C26.1084 37.5774 26.1697 37.2965 26.1707 36.9268C26.1715 36.6073 26.127 36.3135 26.0373 36.044C25.9475 35.7743 25.8189 35.5131 25.6537 35.2614C25.4865 35.0086 25.2844 34.7608 25.0434 34.5176C24.8041 34.2754 24.5363 34.0242 24.2436 33.7627C24.0176 33.5686 23.8184 33.3901 23.6459 33.2326C23.4734 33.0752 23.3314 32.9276 23.2176 32.7907C23.1055 32.6547 23.0186 32.5217 22.9602 32.3936C22.9002 32.2645 22.8721 32.1287 22.8725 31.9862C22.873 31.7399 22.9525 31.5926 23.1102 31.5469C23.2697 31.5022 23.5094 31.5731 23.8326 31.7598C24.0137 31.8643 24.191 31.9918 24.3668 32.1453C24.5408 32.2979 24.7031 32.4551 24.8537 32.6174C25.0027 32.7785 25.1297 32.9291 25.235 33.067C25.3387 33.2059 25.4105 33.309 25.4504 33.3766L25.9713 32.5842C25.7057 32.2225 25.3945 31.8635 25.0398 31.5045C24.6836 31.1465 24.2936 30.8442 23.8695 30.5994H23.8693C23.5645 30.4235 23.2779 30.3061 23.0131 30.2479C22.7471 30.1871 22.5141 30.1893 22.3125 30.2563Z" fill="url(#paint1_linear)"/>
<path d="M30.9614 37.544L28.2292 35.9667L28.2372 33.1698L27.0679 32.4946L27.0483 39.4128L28.2175 40.0878L28.2259 37.1351L30.9579 38.7124L30.9497 41.6651L32.1106 42.3354L32.1302 35.4175L30.9692 34.7472L30.9614 37.544Z" fill="url(#paint2_linear)"/>
<path d="M38.0908 39.9207C37.8371 39.4426 37.5315 38.998 37.1719 38.5861C36.8139 38.1732 36.4172 37.8418 35.9817 37.5904C35.5578 37.3457 35.1639 37.2146 34.8016 37.1984C34.4391 37.1801 34.127 37.258 33.8629 37.4314C33.599 37.6049 33.3918 37.8594 33.2399 38.1939C33.0897 38.5312 33.0129 38.9287 33.0117 39.3906C33.0106 39.8332 33.0797 40.3051 33.2207 40.8088C33.3604 41.3135 33.5584 41.8039 33.8156 42.2801C34.0709 42.7572 34.3785 43.1971 34.7365 43.6021C35.0961 44.0082 35.4945 44.3387 35.9367 44.5939C36.3606 44.8387 36.7529 44.9685 37.117 44.9859C37.4775 45.0033 37.7901 44.9254 38.0504 44.7537C38.3127 44.583 38.5164 44.3306 38.6649 43.9961C38.8135 43.6615 38.8883 43.2652 38.8899 42.8031C38.891 42.3682 38.8203 41.8973 38.6807 41.3945C38.541 40.8904 38.3445 40.4008 38.0908 39.9207ZM37.5942 42.8808C37.5164 43.1117 37.4018 43.2961 37.252 43.4295C37.1022 43.5648 36.9174 43.6353 36.6992 43.6426C36.4811 43.6498 36.2313 43.573 35.9483 43.4096C35.6701 43.249 35.4242 43.0414 35.2067 42.7867C34.9893 42.5303 34.8055 42.2523 34.657 41.9508C34.5068 41.6502 34.3936 41.3379 34.3158 41.0135C34.2361 40.6861 34.1985 40.3752 34.1992 40.0767C34.2 39.7898 34.2395 39.533 34.3156 39.2994C34.3934 39.0685 34.5049 38.8842 34.6527 38.7516C34.8008 38.6191 34.9856 38.5504 35.2055 38.5441C35.427 38.5391 35.6785 38.6166 35.9615 38.7801C36.233 38.9369 36.4772 39.1416 36.6947 39.3941C36.9123 39.6469 37.0943 39.9217 37.2443 40.2244C37.393 40.5242 37.5094 40.8383 37.5891 41.1639C37.6703 41.4924 37.7113 41.8053 37.7106 42.1037C37.7096 42.3904 37.6703 42.6492 37.5942 42.8808Z" fill="url(#paint3_linear)"/>
<path d="M44.1185 43.8076C44.0237 43.4754 43.8921 43.1525 43.722 42.8363C43.5534 42.5213 43.3511 42.2289 43.1171 41.9588C42.8829 41.6906 42.6284 41.4781 42.3503 41.3176L39.7974 39.8438L39.7778 46.7617L40.9487 47.4379L40.9552 45.1186L42.3808 45.9416C42.6571 46.1012 42.912 46.1846 43.1435 46.1873C43.3767 46.1928 43.5749 46.1336 43.7396 46.0148C43.9026 45.893 44.0306 45.7223 44.1218 45.4971C44.213 45.274 44.2591 45.0152 44.2599 44.7229C44.2608 44.4432 44.2147 44.1389 44.1185 43.8076ZM42.8558 44.7326C42.7095 44.8488 42.5298 44.8473 42.3155 44.7234L40.9585 43.9402L40.9647 41.6977L42.2714 42.452C42.3718 42.51 42.4724 42.593 42.571 42.6982C42.6698 42.8033 42.7565 42.9268 42.83 43.0676C42.9034 43.2082 42.9616 43.3596 43.0065 43.5262C43.0515 43.693 43.0743 43.8623 43.0739 44.0375C43.0731 44.382 43.0005 44.6137 42.8558 44.7326Z" fill="url(#paint4_linear)"/>
</g>
<defs>
<linearGradient id="paint0_linear" x1="67.8546" y1="-0.714282" x2="65.6901" y2="39.5367" gradientUnits="userSpaceOnUse">
<stop stop-color="#009CB4"/>
<stop offset="1" stop-color="#006774"/>
</linearGradient>
<linearGradient id="paint1_linear" x1="23.7904" y1="30.2041" x2="23.7904" y2="38.1485" gradientUnits="userSpaceOnUse">
<stop stop-color="#494949"/>
<stop offset="1" stop-color="#262626"/>
</linearGradient>
<linearGradient id="paint2_linear" x1="29.5893" y1="32.4946" x2="29.5893" y2="42.3354" gradientUnits="userSpaceOnUse">
<stop stop-color="#494949"/>
<stop offset="1" stop-color="#262626"/>
</linearGradient>
<linearGradient id="paint3_linear" x1="35.9508" y1="37.1958" x2="35.9508" y2="44.9883" gradientUnits="userSpaceOnUse">
<stop stop-color="#494949"/>
<stop offset="1" stop-color="#262626"/>
</linearGradient>
<linearGradient id="paint4_linear" x1="42.0189" y1="39.8438" x2="42.0189" y2="47.4379" gradientUnits="userSpaceOnUse">
<stop stop-color="#494949"/>
<stop offset="1" stop-color="#262626"/>
</linearGradient>
<clipPath id="clip0">
<rect width="100" height="100" fill="white"/>
</clipPath>
</defs>
</svg>

<svg width="100" height="100" fill="none" xmlns="http://www.w3.org/2000/svg"><g clip-path="url(#clip0)"><path d="M10.407 31.43v40L59.897 100l34.645-20V40L59.898 60l-49.49-28.57z" fill="#E0E0E2"/><path d="M94.542 39.999v40l-34.644 20v-40l34.644-20z" fill="#C6C5CB"/><path d="M7.933 21.428L45.052 0l51.964 29.999v8.572L59.898 60 7.936 30.001l-.003-8.573z" fill="#C51341"/><path d="M7.933 21.428L7.936 30l51.962 29.998v-8.573L7.933 21.428z" fill="#A50020"/><path d="M59.898 60l37.119-21.43v-8.572l-37.12 21.429v8.572zM12.881 21.428l32.17-18.571 47.017 27.141-32.17 18.572L12.88 21.428z" fill="#941A3A"/><path d="M15.356 22.857L45.052 5.714V2.857l-32.17 18.571 2.474 1.429z" fill="#820018"/><path d="M45.052 5.714l44.542 25.713 2.474-1.429L45.052 2.857v2.857z" fill="#A50020"/><path d="M49.733 27.432l13.362-7.714 13.362 7.714v5.865L63.095 41.01l-13.362-7.714v-5.865z" fill="#E0E0E2"/><path d="M59.593 25.411c-1.927 1.112-1.929 2.932-.004 4.043 1.925 1.111 5.078 1.111 7.007 0 1.929-1.111 1.93-2.93.004-4.043-1.927-1.113-5.08-1.113-7.007 0zm-9.86 2.022v5.864l13.362 7.715v-5.865l-13.362-7.714z" fill="#C6C5CB"/><path d="M63.095 41.011l13.362-7.714v-5.865l-13.362 7.715v5.864z" fill="#ACABB1"/><path d="M41.014 24.112v-2.217c0-.733-.48-1.466-1.445-2.023-1.926-1.112-5.08-1.112-7.007 0-.963.557-1.445 1.29-1.446 2.023v2.217c-.001.733.48 1.466 1.442 2.022 1.925 1.111 5.078 1.111 7.007 0 .966-.556 1.448-1.289 1.449-2.022z" fill="#C6C5CB"/><path d="M32.563 19.872c-1.927 1.113-1.93 2.932-.005 4.044 1.925 1.111 5.078 1.111 7.008 0 1.929-1.112 1.93-2.931.004-4.044-1.928-1.112-5.08-1.112-7.007 0z" fill="#E0E0E2"/><path d="M51.954 17.795V15.58c.001-.733-.48-1.467-1.444-2.023-1.926-1.112-5.08-1.112-7.007 0-.963.556-1.446 1.29-1.446 2.023v2.216c-.001.733.48 1.466 1.442 2.022 1.925 1.112 5.078 1.112 7.007 0 .965-.555 1.448-1.288 1.448-2.022z" fill="#C6C5CB"/><path d="M43.503 13.557c-1.927 1.112-1.929 2.932-.004 4.043 1.925 1.111 5.078 1.111 7.007 0 1.93-1.111 1.931-2.93.004-4.043-1.927-1.112-5.08-1.113-7.007 0z" fill="#E0E0E2"/><path d="M15.36 45.71l-.005 14.287 12.376 7.143V52.854L15.36 45.71zm26.928 15.716l-.004 14.287 12.376 7.143V68.57l-12.372-7.144z" fill="#59A4FF"/><path d="M30.202 82.857V54.286L40.103 60v28.572l-9.9-5.715z" fill="#A50020"/><path d="M32.056 56.968v12.68l5.955 3.445.004-12.683-5.959-3.442z" fill="#59A4FF"/><path d="M38.448 74.476v2.917l.853.492v-2.917l-.853-.492z" fill="#EEBF00"/><path d="M38.54 76.522a.478.478 0 100-.956.478.478 0 000 .956z" fill="#FED322"/><path d="M64.846 65.714L89.59 51.428v17.143L64.846 82.856V65.714z" fill="#2487FF"/><path d="M12.882 32.859L2.988 38.57l44.538 25.714 9.9-5.715-44.544-25.711z" fill="#fff"/><path d="M7.937 41.429l-4.95-2.857v2.856c0 1.573 1.114 3.501 2.475 4.287 1.362.785 2.475.141 2.475-1.43l-.003-.073c.002-.665.003-2.783.003-2.783z" fill="#941A3A"/><path d="M12.886 44.286l-4.95-2.857v2.856c0 1.573 1.114 3.501 2.475 4.287 1.361.785 2.475.141 2.475-1.43l-.003-.073c.002-.665.003-2.783.003-2.783z" fill="#E0E0E2"/><path d="M17.834 47.143l-4.949-2.857v2.857c0 1.572 1.114 3.5 2.475 4.286 1.361.785 2.474.142 2.474-1.43l-.003-.073c.003-.665.003-2.783.003-2.783z" fill="#941A3A"/><path d="M22.783 50l-4.949-2.857V50c0 1.572 1.114 3.5 2.475 4.286 1.36.785 2.474.142 2.474-1.43l-.003-.073c.003-.665.003-2.783.003-2.783z" fill="#E0E0E2"/><path d="M27.731 52.858L22.782 50v2.856c0 1.572 1.114 3.5 2.475 4.286 1.361.785 2.474.142 2.474-1.43l-.003-.072c.003-.666.003-2.783.003-2.783z" fill="#941A3A"/><path d="M32.68 55.714l-4.949-2.858v2.857c0 1.572 1.113 3.5 2.475 4.286 1.36.785 2.474.142 2.474-1.43l-.003-.073c.003-.665.003-2.782.003-2.782z" fill="#E0E0E2"/><path d="M37.629 58.57l-4.95-2.856v2.856c0 1.573 1.114 3.501 2.475 4.286 1.361.786 2.475.142 2.475-1.43l-.003-.072c.002-.665.003-2.783.003-2.783z" fill="#941A3A"/><path d="M42.578 61.428l-4.95-2.857v2.856c0 1.573 1.114 3.501 2.475 4.286 1.362.786 2.475.142 2.475-1.43l-.003-.072c.002-.665.003-2.783.003-2.783z" fill="#E0E0E2"/><path d="M47.526 64.286l-4.949-2.857v2.856c0 1.573 1.114 3.501 2.475 4.286 1.36.786 2.474.142 2.474-1.43l-.003-.072c.003-.665.003-2.783.003-2.783z" fill="#941A3A"/><path d="M7.936 41.428l9.898-5.714-4.953-2.855s-10.13 5.576-9.894 5.712l4.95 2.857zm9.897 5.714l9.898-5.714-4.953-2.855s-10.13 5.575-9.894 5.712l4.95 2.857zm9.897 5.716l9.898-5.715-4.952-2.855S22.546 49.864 22.782 50l4.949 2.858zm9.898 5.714l9.897-5.715-4.952-2.855s-10.13 5.576-9.894 5.713l4.949 2.857zm9.897 5.715l9.897-5.715-4.952-2.855s-10.13 5.576-9.894 5.713l4.949 2.857z" fill="#C51341"/><path d="M18.527 23.055V38.28L48.26 55.446l1.843-1.05V39.138L20.429 22.006l-1.902 1.05z" fill="#E0E0E2"/><path d="M48.26 55.445l1.842-1.05V39.137l-1.843 1.05v15.258z" fill="#C6C5CB"/><path d="M18.527 23.055l1.901-1.05 29.674 17.133-1.843 1.05-29.732-17.133z" fill="#fff"/><path d="M22.313 30.256a.828.828 0 00-.473.41c-.115.207-.171.487-.172.837 0 .268.034.517.104.749.07.233.176.464.317.692.14.227.317.455.528.684.212.231.461.473.75.73l.643.588c.193.177.357.343.492.498.136.158.24.308.313.455.073.146.11.294.11.443-.002.475-.324.526-.97.154a4.283 4.283 0 01-.677-.49 7.072 7.072 0 01-.603-.587c-.18-.198-.336-.383-.47-.553-.132-.17-.224-.3-.274-.387l-.52.86a8.92 8.92 0 001.185 1.348 7.4 7.4 0 001.34 1.008c.292.17.574.294.842.375.27.08.508.099.715.056a.752.752 0 00.492-.356c.123-.193.185-.474.186-.843 0-.32-.044-.614-.134-.883-.09-.27-.218-.53-.383-.783-.168-.252-.37-.5-.61-.743s-.508-.494-.8-.755a26.117 26.117 0 01-.598-.53 4.512 4.512 0 01-.428-.442 1.833 1.833 0 01-.258-.397.947.947 0 01-.088-.408c.001-.246.08-.393.238-.44.16-.044.4.027.723.214.18.104.358.232.534.385a6.597 6.597 0 01.868.922c.104.139.175.242.215.31l.521-.793a9.796 9.796 0 00-.931-1.08 5.59 5.59 0 00-1.17-.905 3.052 3.052 0 00-.857-.351c-.266-.06-.499-.059-.7.008zm8.648 7.288l-2.732-1.577.008-2.797-1.17-.675-.019 6.918 1.17.675.008-2.953 2.732 1.577-.008 2.953 1.16.67.02-6.918-1.16-.67-.009 2.797zm7.129 2.376a7.038 7.038 0 00-.918-1.334 4.654 4.654 0 00-1.19-.996c-.424-.244-.818-.375-1.18-.392-.363-.018-.675.06-.94.233-.263.174-.47.428-.622.763-.15.337-.227.735-.228 1.197-.001.442.068.914.209 1.418a7 7 0 00.595 1.471c.255.477.563.917.92 1.322.36.406.759.737 1.2.992.425.245.817.374 1.181.392.36.017.673-.06.933-.232.263-.171.466-.423.615-.758.148-.335.223-.73.225-1.193a5.245 5.245 0 00-.21-1.408 7.341 7.341 0 00-.59-1.474zm-.496 2.96a1.256 1.256 0 01-.342.55.839.839 0 01-.553.213c-.218.007-.468-.07-.75-.233a2.835 2.835 0 01-.742-.623 4.067 4.067 0 01-.55-.836 4.368 4.368 0 01-.458-1.874c.001-.287.04-.544.117-.778.077-.23.189-.415.337-.547a.837.837 0 01.553-.208c.221-.005.472.073.755.236.272.157.516.362.734.614.217.253.4.528.55.83.148.3.264.614.344.94.081.328.122.641.122.94-.001.286-.04.545-.117.777zm6.524.928a4.856 4.856 0 00-1-1.85 3.025 3.025 0 00-.768-.64l-2.553-1.474-.02 6.918 1.172.676.006-2.32 1.426.824c.276.16.531.243.763.245a.952.952 0 00.596-.172c.163-.122.29-.293.382-.518a2.06 2.06 0 00.138-.774c0-.28-.045-.584-.142-.915zm-1.262.925c-.147.116-.326.114-.54-.01l-1.358-.783.007-2.242 1.306.754c.1.058.201.141.3.246.099.105.186.229.259.37.073.14.132.292.177.458.044.167.067.336.067.511 0 .345-.073.577-.218.696z" fill="#A50020"/></g><defs><clipPath id="clip0"><path fill="#fff" d="M0 0h100v100H0z"/></clipPath></defs></svg>
